Resources/Icons/WF_twoPointsLine.svg

<?xml version="1.0" encoding="UTF-8" standalone="no"?>
<!-- Created with Inkscape (http://www.inkscape.org/) -->

<svg
   xmlns:dc="http://purl.org/dc/elements/1.1/"
   xmlns:cc="http://creativecommons.org/ns#"
   xmlns:rdf="http://www.w3.org/1999/02/22-rdf-syntax-ns#"
   xmlns:svg="http://www.w3.org/2000/svg"
   xmlns="http://www.w3.org/2000/svg"
   xmlns:xlink="http://www.w3.org/1999/xlink"
   xmlns:sodipodi="http://sodipodi.sourceforge.net/DTD/sodipodi-0.dtd"
   xmlns:inkscape="http://www.inkscape.org/namespaces/inkscape"
   width="64px"
   height="64px"
   id="svg2726"
   sodipodi:version="0.32"
   inkscape:version="0.92.2 (5c3e80d, 2017-08-06)"
   sodipodi:docname="WF_twoPointsLine.svg"
   inkscape:output_extension="org.inkscape.output.svg.inkscape"
   version="1.1">
  <defs
     id="defs2728">
    <radialGradient
       inkscape:collect="always"
       xlink:href="#linearGradient3144"
       id="radialGradient4274"
       gradientUnits="userSpaceOnUse"
       gradientTransform="matrix(0.99999994,0,0,0.69852936,-947.72621,-112.75663)"
       cx="225.26402"
       cy="672.79736"
       fx="225.26402"
       fy="672.79736"
       r="34.345188" />
    <linearGradient
       inkscape:collect="always"
       id="linearGradient3144">
      <stop
         style="stop-color:#ffffff;stop-opacity:1;"
         offset="0"
         id="stop3146" />
      <stop
         style="stop-color:#ffffff;stop-opacity:0;"
         offset="1"
         id="stop3148" />
    </linearGradient>
    <radialGradient
       inkscape:collect="always"
       xlink:href="#linearGradient3144"
       id="radialGradient4272"
       gradientUnits="userSpaceOnUse"
       gradientTransform="matrix(1,0,0,0.6985294,0,202.82863)"
       cx="225.26402"
       cy="672.79736"
       fx="225.26402"
       fy="672.79736"
       r="34.345188" />
    <inkscape:perspective
       sodipodi:type="inkscape:persp3d"
       inkscape:vp_x="0 : 32 : 1"
       inkscape:vp_y="0 : 1000 : 0"
       inkscape:vp_z="64 : 32 : 1"
       inkscape:persp3d-origin="32 : 21.333333 : 1"
       id="perspective2734" />
  </defs>
  <sodipodi:namedview
     id="base"
     pagecolor="#ffffff"
     bordercolor="#666666"
     borderopacity="1.0"
     inkscape:pageopacity="0.0"
     inkscape:pageshadow="2"
     inkscape:zoom="14.984375"
     inkscape:cx="32"
     inkscape:cy="32"
     inkscape:current-layer="g4289"
     showgrid="true"
     inkscape:document-units="px"
     inkscape:grid-bbox="true"
     inkscape:window-width="1920"
     inkscape:window-height="1172"
     inkscape:window-x="0"
     inkscape:window-y="0"
     inkscape:window-maximized="1"
     inkscape:snap-center="true" />
  <metadata
     id="metadata2731">
    <rdf:RDF>
      <cc:Work
         rdf:about="">
        <dc:format>image/svg+xml</dc:format>
        <dc:type
           rdf:resource="http://purl.org/dc/dcmitype/StillImage" />
        <dc:title />
      </cc:Work>
    </rdf:RDF>
  </metadata>
  <g
     id="layer1"
     inkscape:label="Layer 1"
     inkscape:groupmode="layer">
    <g
       id="g4289"
       transform="matrix(0.1621282,0,0,0.1621282,6.3605986,-66.108806)">
      <g
         transform="matrix(-0.99894577,-0.04590577,-0.04590577,0.99894577,271.53563,90.864345)"
         id="g3255">
        <path
           id="rect3257"
           d="m 246.91044,448.95693 c -20.93264,0.58596 -37.99085,17.50495 -38.47184,38.67566 -0.10989,4.83689 0.67296,9.48714 2.16564,13.80909 L 52.207293,643.86391 c -7.155308,-6.01548 -16.450171,-9.51822 -26.522636,-9.24853 -21.8514501,0.58506 -39.107857,18.78599 -38.52279,40.63747 0.585067,21.85144 18.7860155,39.10786 40.637467,38.52279 21.851448,-0.58507 39.107856,-18.786 38.52279,-40.63747 -0.07462,-2.7871 -0.45103,-5.49182 -1.070077,-8.10202 L 225.40698,521.03429 c 6.17366,4.30802 13.64772,6.8992 21.73276,7.0829 21.85364,0.4965 39.98809,-16.82203 40.4846,-38.67566 0.4965,-21.85364 -16.82201,-39.9881 -38.67566,-40.4846 -0.68292,-0.0155 -1.363,-0.0189 -2.03824,0 z"
           style="display:inline;overflow:visible;visibility:visible;opacity:1;fill:#000000;fill-opacity:0.58469944;fill-rule:nonzero;stroke:none;stroke-width:5.80000114;stroke-linecap:butt;stroke-linejoin:miter;stroke-miterlimit:4;stroke-dasharray:none;stroke-dashoffset:0;stroke-opacity:1;marker:none;marker-start:none;marker-mid:none;marker-end:none;enable-background:accumulate"
           inkscape:connector-curvature="0" />
      </g>
      <g
         id="g3242">
        <rect
           style="display:inline;overflow:visible;visibility:visible;opacity:1;fill:#ff8f00;fill-opacity:1;fill-rule:nonzero;stroke:#7b5600;stroke-width:6.06896448;stroke-linecap:butt;stroke-linejoin:miter;stroke-miterlimit:4;stroke-dasharray:none;stroke-dashoffset:0;stroke-opacity:1;marker:none;marker-start:none;marker-mid:none;marker-end:none;enable-background:accumulate"
           id="rect2269"
           width="31.5728"
           height="343.31708"
           x="304.76123"
           y="339.21841"
           transform="matrix(-0.6275409,0.77858359,0.70607214,0.70813991,0,0)" />
        <g
           id="g3154"
           transform="matrix(0.9996417,0.02676515,0.02676515,-0.9996417,82.77569,1394.7727)"
           inkscape:export-filename="/home/yorik/Documents/Lab/Draft/icons/line.png"
           inkscape:export-xdpi="7.0721951"
           inkscape:export-ydpi="7.0721951">
          <circle
             id="path2162"
             style="fill:#0079ff;fill-opacity:1;stroke:#001833;stroke-width:5.80000019;stroke-miterlimit:4;stroke-dasharray:none;stroke-opacity:1"
             cx="197.14285"
             cy="655.2193"
             r="48.57143" />
          <ellipse
             transform="rotate(-31.646396,208.53892,704.63791)"
             id="path3134"
             style="fill:url(#radialGradient4272);fill-opacity:1;stroke:none;stroke-width:0;stroke-miterlimit:4;stroke-dasharray:none;stroke-opacity:1"
             cx="225.26402"
             cy="672.79736"
             rx="34.345188"
             ry="23.991123" />
        </g>
        <g
           id="g3160"
           transform="rotate(-178.6985,241.24056,559.27989)"
           inkscape:export-filename="/home/yorik/Documents/Lab/Draft/icons/line.png"
           inkscape:export-xdpi="7.0721951"
           inkscape:export-ydpi="7.0721951">
          <circle
             id="path3162"
             style="display:inline;overflow:visible;visibility:visible;opacity:1;fill:#0079ff;fill-opacity:1;fill-rule:nonzero;stroke:#001833;stroke-width:5.80000019;stroke-linecap:butt;stroke-linejoin:miter;stroke-miterlimit:4;stroke-dasharray:none;stroke-dashoffset:0;stroke-opacity:1;marker:none;marker-start:none;marker-mid:none;marker-end:none;enable-background:accumulate"
             cx="-436.5416"
             cy="669.61621"
             r="48.57143"
             transform="matrix(-0.99896819,0.04541531,0.04541531,0.99896819,0,0)" />
          <ellipse
             transform="matrix(-0.87425227,-0.48547191,-0.48547191,0.87425227,0,0)"
             id="path3164"
             style="fill:url(#radialGradient4274);fill-opacity:1;stroke:none;stroke-width:0;stroke-miterlimit:4;stroke-dasharray:none;stroke-opacity:1"
             cx="-722.46222"
             cy="357.21207"
             rx="34.345184"
             ry="23.991121" />
        </g>
      </g>
    </g>
  </g>
</svg>

<?xml version="1.0" encoding="UTF-8" standalone="no"?>
<!-- Created with Inkscape (http://www.inkscape.org/) -->

<svg
   xmlns:dc="http://purl.org/dc/elements/1.1/"
   xmlns:cc="http://creativecommons.org/ns#"
   xmlns:rdf="http://www.w3.org/1999/02/22-rdf-syntax-ns#"
   xmlns:svg="http://www.w3.org/2000/svg"
   xmlns="http://www.w3.org/2000/svg"
   xmlns:xlink="http://www.w3.org/1999/xlink"
   xmlns:sodipodi="http://sodipodi.sourceforge.net/DTD/sodipodi-0.dtd"
   xmlns:inkscape="http://www.inkscape.org/namespaces/inkscape"
   width="64px"
   height="64px"
   id="svg2726"
   sodipodi:version="0.32"
   inkscape:version="0.48.3.1 r9886"
   sodipodi:docname="2pointsLine.svg"
   inkscape:output_extension="org.inkscape.output.svg.inkscape"
   version="1.1">
  <defs
     id="defs2728">
    <radialGradient
       inkscape:collect="always"
       xlink:href="#linearGradient3144"
       id="radialGradient4274"
       gradientUnits="userSpaceOnUse"
       gradientTransform="matrix(1,0,0,0.6985294,0,202.82863)"
       cx="225.26402"
       cy="672.79736"
       fx="225.26402"
       fy="672.79736"
       r="34.345188" />
    <linearGradient
       inkscape:collect="always"
       id="linearGradient3144">
      <stop
         style="stop-color:#ffffff;stop-opacity:1;"
         offset="0"
         id="stop3146" />
      <stop
         style="stop-color:#ffffff;stop-opacity:0;"
         offset="1"
         id="stop3148" />
    </linearGradient>
    <radialGradient
       inkscape:collect="always"
       xlink:href="#linearGradient3144"
       id="radialGradient4272"
       gradientUnits="userSpaceOnUse"
       gradientTransform="matrix(1,0,0,0.6985294,0,202.82863)"
       cx="225.26402"
       cy="672.79736"
       fx="225.26402"
       fy="672.79736"
       r="34.345188" />
    <inkscape:perspective
       sodipodi:type="inkscape:persp3d"
       inkscape:vp_x="0 : 32 : 1"
       inkscape:vp_y="0 : 1000 : 0"
       inkscape:vp_z="64 : 32 : 1"
       inkscape:persp3d-origin="32 : 21.333333 : 1"
       id="perspective2734" />
  </defs>
  <sodipodi:namedview
     id="base"
     pagecolor="#ffffff"
     bordercolor="#666666"
     borderopacity="1.0"
     inkscape:pageopacity="0.0"
     inkscape:pageshadow="2"
     inkscape:zoom="3.8890873"
     inkscape:cx="19.138856"
     inkscape:cy="25.806874"
     inkscape:current-layer="g3160"
     showgrid="true"
     inkscape:document-units="px"
     inkscape:grid-bbox="true"
     inkscape:window-width="951"
     inkscape:window-height="552"
     inkscape:window-x="269"
     inkscape:window-y="395"
     inkscape:window-maximized="0" />
  <metadata
     id="metadata2731">
    <rdf:RDF>
      <cc:Work
         rdf:about="">
        <dc:format>image/svg+xml</dc:format>
        <dc:type
           rdf:resource="http://purl.org/dc/dcmitype/StillImage" />
        <dc:title></dc:title>
      </cc:Work>
    </rdf:RDF>
  </metadata>
  <g
     id="layer1"
     inkscape:label="Layer 1"
     inkscape:groupmode="layer">
    <g
       id="g4289"
       transform="matrix(0.1621282,0,0,0.1621282,6.3605986,-66.108806)">
      <g
         transform="translate(43.714324,68.714247)"
         id="g3255">
        <path
           id="rect3257"
           d="M 246.91044,448.95693 C 225.9778,449.54289 208.91959,466.46188 208.4386,487.63259 C 208.32871,492.46948 209.11156,497.11973 210.60424,501.44168 L 52.207293,643.86391 C 45.051985,637.84843 35.757122,634.34569 25.684657,634.61538 C 3.8332069,635.20044 -13.4232,653.40137 -12.838133,675.25285 C -12.253066,697.10429 5.9478825,714.36071 27.799334,713.77564 C 49.650782,713.19057 66.90719,694.98964 66.322124,673.13817 C 66.2475,670.35107 65.871094,667.64635 65.252047,665.03615 L 225.40698,521.03429 C 231.58064,525.34231 239.0547,527.93349 247.13974,528.11719 C 268.99338,528.61369 287.12783,511.29516 287.62434,489.44153 C 288.12084,467.58789 270.80233,449.45343 248.94868,448.95693 C 248.26576,448.94142 247.58568,448.93803 246.91044,448.95693 z"
           style="opacity:1;fill:#000000;fill-opacity:0.58469944;fill-rule:nonzero;stroke:none;stroke-width:5.80000114;stroke-linecap:butt;stroke-linejoin:miter;marker:none;marker-start:none;marker-mid:none;marker-end:none;stroke-miterlimit:4;stroke-dasharray:none;stroke-dashoffset:0;stroke-opacity:1;visibility:visible;display:inline;overflow:visible;enable-background:accumulate" />
      </g>
      <g
         id="g3242">
        <rect
           style="opacity:1;fill:#ff8f00;fill-opacity:1;fill-rule:nonzero;stroke:#7b5600;stroke-width:5.80000114000000000;stroke-linecap:butt;stroke-linejoin:miter;marker:none;marker-start:none;marker-mid:none;marker-end:none;stroke-miterlimit:4;stroke-dasharray:none;stroke-dashoffset:0;stroke-opacity:1;visibility:visible;display:inline;overflow:visible;enable-background:accumulate"
           id="rect2269"
           width="30.000006"
           height="330.00009"
           x="534.10168"
           y="119.87096"
           transform="matrix(0.668591,0.7436304,-0.7436304,0.668591,0,0)" />
        <g
           id="g3154"
           transform="matrix(-0.9996417,2.6765153e-2,-2.6765153e-2,-0.9996417,238.03783,1359.7845)"
           inkscape:export-filename="/home/yorik/Documents/Lab/Draft/icons/line.png"
           inkscape:export-xdpi="7.0721951"
           inkscape:export-ydpi="7.0721951">
          <path
             d="m 245.71428,655.2193 c 0,26.82526 -21.74617,48.57143 -48.57143,48.57143 -26.82526,0 -48.57143,-21.74617 -48.57143,-48.57143 0,-26.82526 21.74617,-48.57143 48.57143,-48.57143 26.82526,0 48.57143,21.74617 48.57143,48.57143 z"
             sodipodi:ry="48.57143"
             sodipodi:rx="48.57143"
             sodipodi:cy="655.2193"
             sodipodi:cx="197.14285"
             id="path2162"
             style="fill:#0079ff;fill-opacity:1;stroke:#001833;stroke-width:5.80000019000000044;stroke-miterlimit:4;stroke-dasharray:none;stroke-opacity:1"
             sodipodi:type="arc" />
          <path
             transform="matrix(0.8513023,-0.5246754,0.5246754,0.8513023,-338.69692,214.19328)"
             d="m 259.60921,672.79736 c 0,13.24993 -15.37686,23.99113 -34.34519,23.99113 -18.96832,0 -34.34519,-10.7412 -34.34519,-23.99113 0,-13.24993 15.37687,-23.99112 34.34519,-23.99112 18.96833,0 34.34519,10.74119 34.34519,23.99112 z"
             sodipodi:ry="23.991123"
             sodipodi:rx="34.345188"
             sodipodi:cy="672.79736"
             sodipodi:cx="225.26402"
             id="path3134"
             style="fill:url(#radialGradient4272);fill-opacity:1;stroke:none;stroke-width:0;stroke-miterlimit:4;stroke-dasharray:none;stroke-opacity:1"
             sodipodi:type="arc" />
        </g>
        <g
           id="g3160"
           transform="matrix(-0.999742,-2.2713514e-2,2.2713514e-2,-0.999742,475.0668,1137.8902)"
           inkscape:export-filename="/home/yorik/Documents/Lab/Draft/icons/line.png"
           inkscape:export-xdpi="7.0721951"
           inkscape:export-ydpi="7.0721951">
          <path
             d="m 245.71428,655.2193 c 0,26.82526 -21.74617,48.57143 -48.57143,48.57143 -26.82526,0 -48.57143,-21.74617 -48.57143,-48.57143 0,-26.82526 21.74617,-48.57143 48.57143,-48.57143 26.82526,0 48.57143,21.74617 48.57143,48.57143 z"
             sodipodi:ry="48.57143"
             sodipodi:rx="48.57143"
             sodipodi:cy="655.2193"
             sodipodi:cx="197.14285"
             id="path3162"
             style="opacity:1;fill:#0079ff;fill-opacity:1;fill-rule:nonzero;stroke:#001833;stroke-width:5.80000019000000044;stroke-linecap:butt;stroke-linejoin:miter;marker:none;marker-start:none;marker-mid:none;marker-end:none;stroke-miterlimit:4;stroke-dasharray:none;stroke-dashoffset:0;stroke-opacity:1;visibility:visible;display:inline;overflow:visible;enable-background:accumulate"
             sodipodi:type="arc" />
          <path
             transform="matrix(0.8513023,-0.5246754,0.5246754,0.8513023,-338.69692,214.19328)"
             d="m 259.60921,672.79736 c 0,13.24993 -15.37686,23.99113 -34.34519,23.99113 -18.96832,0 -34.34519,-10.7412 -34.34519,-23.99113 0,-13.24993 15.37687,-23.99112 34.34519,-23.99112 18.96833,0 34.34519,10.74119 34.34519,23.99112 z"
             sodipodi:ry="23.991123"
             sodipodi:rx="34.345188"
             sodipodi:cy="672.79736"
             sodipodi:cx="225.26402"
             id="path3164"
             style="fill:url(#radialGradient4274);fill-opacity:1;stroke:none;stroke-width:0;stroke-miterlimit:4;stroke-dasharray:none;stroke-opacity:1"
             sodipodi:type="arc" />
        </g>
      </g>
    </g>
  </g>
</svg>
